X:2
T:Springleik in D
R:Springleik
Z:2006 Brian Wilson <Brian.Wilson@alumni.brown.edu>
Z:from Laura, from Ivar at Mendocino 6/05
M:9/8
L:1/8
K:D
|: e3- (2ed f2a | g2f (2ed c(Bc) | d3 (fd2) f2a | g3 e6
|  e3- (2ed {e}f2a | g2f (2ed c(Bc) | d3 (efg) f(ed) | (fec) d6 :|
|: B3- B2G B(dB) | A2G FG2 A(Bc) | d3 (FG2) A2B | G3 E6
|  D2(E FG2) A2B | A2(G FG2) A(Bc) |  d3 (efg) f(ed) | (fec) d6 :|
